X: 3
T: Maggie West's Waltz
C: Mairearad Green
O: Achiltibuie, Scotland
N: Named for the composer's grandmother
S: printed copy of unknown origin from Concord Slow Scottish Session collection
F: http://www.youtube.com/watch?v=4NEedmlXtT8
R: waltz
M: 3/4
L: 1/8
K: G
D G>A |\
"G"B3 B A>G | "C"EG2 D G>A | "G"B>d d>g (3gab | "D"a3 a g>a |\
"C"ge2 e g>e | "G"d3 B A>G |1 "Am"A2 A>B (3BAG | "D"A3 :|2 "D"A2- AB/A/ GF | "G"G3 |]
|: d (3BAG |\
"G"A>G- G>d (3BAG | "G"A>G- Gd (3BAG | "G"A>B d>g (3gab | "D"a3 a g>a |\
"C"ge2 e g>e | "G"d3 B A>G |1 "Am"A2 A>B (3BAG | "D"A3 :|2 "D"A2- AB/A/ GF | "G"G3 |]
